!!!COM:	Bach, Johann Sebastian
!!!CDT:	1685/02/21/-1750/07/28/
!!!OTL@@DE:	Herr Jesu Christ, ich schrei zu dir
!!!SCT:	BWV 334
!!!PC#:	73
!!!AGN:	chorale
**harm	**kern	**kern	**kern	**kern
*	*ICvox	*ICvox	*ICvox	*ICvox
*	*Ibass	*Itenor	*Ialto	*Isoprn
*	*I"Bass	*I"Tenor	*I"Alto	*I"Soprano
*>[A,A,B]	*>[A,A,B]	*>[A,A,B]	*>[A,A,B]	*>[A,A,B]
*>norep[A,B]	*>norep[A,B]	*>norep[A,B]	*>norep[A,B]	*>norep[A,B]
*>A	*>A	*>A	*>A	*>A
*	*	*oclefC4	*oclefC3	*oclefC1
*	*clefF4	*clefGv2	*clefG2	*clefG2
*k[b-e-]	*k[b-e-]	*k[b-e-]	*k[b-e-]	*k[b-e-]
*g:	*g:	*g:	*g:	*g:
*M4/4	*M4/4	*M4/4	*M4/4	*M4/4
*met(c)	*met(c)	*met(c)	*met(c)	*met(c)
*MM100	*MM100	*MM100	*MM100	*MM100
i	4G	4B-	4d	4g
=1	=1	=1	=1	=1
ii%65	4C	4A	4e-	4g
V7	4D	4A	4c	4f#
VI	4E-	4G	4B-	4g
iio6	4C	4c	4e-	4a
=2	=2	=2	=2	=2
V(64)	4D	4G	4d	4b-
V	4D	4F#	4d	4a
i;	4GG;	4B-;	4d;	4g;
i	4G	4B-	4d	4g
=3	=3	=3	=3	=3
ii%2	4G	4c	4e-	4a
V65	4F#	4c	4d	4a
viio64/iv	4F	4B	4d	4dd
iv6	4E-	4c	4g	4cc
=4	=4	=4	=4	=4
i64	4D	4d	4g	4b-
viio7/V	4C#	4e	4g	4b-
V;	4D;	4d;	4f#;	4a;
*>B	*>B	*>B	*>B	*>B
i6	4B-	4d	4g	4dd
=5	=5	=5	=5	=5
iv2	8B-L	8e-XL	8gL	8ccL
B-:V6	8AJ	8fJ	8fnXJ	8ccJ
IV6	4G	4g	4e-	4b-
vii%2	8GL	8cL	8e-L	8aL
I64	8FJ	8dJ	8dJ	8b-J
ii6	8E-L	8GL	8cL	8ccL
g:iio64	8E-J	8cJ	8aJ	8ccJ
=6	=6	=6	=6	=6
V(64)	4D	4d	4g	4b-
V	4D	4A	4f#	4a
i;	4GG;	4B-;	4d;	4g;
i	4G	4d	4g	4b-
=7	=7	=7	=7	=7
d:V2	8GL	8c#L	8eL	8aL
i6	8FJ	8dJ	8dJ	8aJ
viio6	4E	4e	4c#	4g
i	2D	2A	2d	2f
=8	=8	=8	=8	=8
i	8DL	8AL	8dL	8fL
F:I6	8AAJ	8cJ	8fJ	8fJ
ii65	8BB-L	8dL	8fL	8gL
V	8CJ	8cJ	8eJ	8gJ
I;	4FF;	4c;	4f;	4a;
I	8FL	8cL	8fL	8aL
V2/IV	8E-XJ	8cJ	8fJ	8aJ
=9	=9	=9	=9	=9
B-:I6	4D	4d	4f	4b-
viio6	4C	4e-	4a	4cc
I7	4BB-	4f	4a	4dd
g:V43	4AA	4f#	4d	4cc
=10	=10	=10	=10	=10
i	4GG	4g	4d	4b-
iv6	4E-	4G	4c	4cc
ii%65	4C	4G	4e-	4a
V7	4D	4F#	4c	4a
=11	=11	=11	=11	=11
I;	2.GG;	2.D;	2.B;	2.g;
==	==	==	==	==
*-	*-	*-	*-	*-
!!!YOR1: 371 vierstimmige Choralges&auml;nge von Johann Sebastian Bach, 
!!!YOR2: 4th ed. by Alfred D&ouml;rffel (Leipzig: Breitkopf und H&auml;rtel, 
!!!YOR2: c.1875). 178 pp. Plate "V.A.10".  reprint: J.S. Bach, 371 Four-Part 
!!!YOR4: Chorales (New York: Associated Music Publishers, Inc., c.1940).
!!!SMS: B&H, 4th ed, Alfred D&ouml;rffel, c.1875, plate V.A.10
!!!EED:  Craig Stuart Sapp
!!!EEV:  2009/05/22
